svgs/light/wave-square.svg

<svg xmlns="http://www.w3.org/2000/svg" viewBox="0 0 640 512"><!--! Font Awesome Pro 6.6.0 by @fontawesome - https://fontawesome.com License - https://fontawesome.com/license (Commercial License) Copyright 2024 Fonticons, Inc. --><path d="M192 64c-8.8 0-16 7.2-16 16l0 144c0 26.5-21.5 48-48 48L16 272c-8.8 0-16-7.2-16-16s7.2-16 16-16l112 0c8.8 0 16-7.2 16-16l0-144c0-26.5 21.5-48 48-48l96 0c26.5 0 48 21.5 48 48l0 352c0 8.8 7.2 16 16 16l96 0c8.8 0 16-7.2 16-16l0-144c0-26.5 21.5-48 48-48l112 0c8.8 0 16 7.2 16 16s-7.2 16-16 16l-112 0c-8.8 0-16 7.2-16 16l0 144c0 26.5-21.5 48-48 48l-96 0c-26.5 0-48-21.5-48-48l0-352c0-8.8-7.2-16-16-16l-96 0z"/></svg>

<svg xmlns="http://www.w3.org/2000/svg" viewBox="0 0 640 512"><!--! Font Awesome Pro 6.4.2 by @fontawesome - https://fontawesome.com License - https://fontawesome.com/license (Commercial License) Copyright 2023 Fonticons, Inc. --><path d="M192 64c-8.8 0-16 7.2-16 16V224c0 26.5-21.5 48-48 48H16c-8.8 0-16-7.2-16-16s7.2-16 16-16H128c8.8 0 16-7.2 16-16V80c0-26.5 21.5-48 48-48h96c26.5 0 48 21.5 48 48V432c0 8.8 7.2 16 16 16h96c8.8 0 16-7.2 16-16V288c0-26.5 21.5-48 48-48H624c8.8 0 16 7.2 16 16s-7.2 16-16 16H512c-8.8 0-16 7.2-16 16V432c0 26.5-21.5 48-48 48H352c-26.5 0-48-21.5-48-48V80c0-8.8-7.2-16-16-16H192z"/></svg>
